X: 642
T: Ku lingding
%%abc-version 2.0
%%abcx-abcm2ps-target-version 5.9.1 (29 Sep 2008)
%%abc-creator hum2abc beta
%%abcx-conversion-date 2013/10/02 07:52:30
%%abc-edited-by Helmut Schaffrath
%%humdrum-veritas 3988201562
%%humdrum-veritas-data 1364895666
%%continueall 1
%%barnumbers 0
L: 1/8
M: 4/4
K: G
d> e d cA4 [I:setbarnb 1]| 
d> e d AG2F E/ D/ | 
d> e d c B A G F | 
E B, D E/ G/D4 | 
A GA2d e d c | 
B d A D A B A G | 
F E D E/ G/D4 | 
A GA2d e d c | 
B d A D A B A G | 
F E D E/ G/D4 |]  



